!! 00000] TT[WS
!!!OTL: Jianzu
!!!ARE: Asia, China, Shanxi Zuoqun
!! Ethnic Group: Han
!! WII, 241 (2)
!!!SCT: J0763
!!!YEM: Copyright 1995, estate of Helmut Schaffrath.
**kern
*ICvox
*Ivox
*M2/4
*k[b-e-]
*B-:
{4ccc
8ccc
8ccc
=1
8.bb-
16ccc
8ddd
8fff
=2
2ccc}
=3
{4ddd
8ddd
8fff
=4
8ccc
8ddd
8ccc
8gg
=5
2ff}
=6
{4ff
8ee-
8dd
=7
4ccc
=8
4bb-
8aa
8gg
=9
2bb-}
=10
{8gg
8bb-
8gg
8ff
=11
4ee-
8.gg
16dd
=12
2cc}
==
!!!AGN: Xiaodiao. XÅshi, Xinminge
!!!ONB: ESAC (Essen Associative Code) Database: CHINA
!!!AMT: simple duple
!!!AIN: vox
!!!EED: Helmut Schaffrath
!!!EEV: 1.0
*-
